X: 3
T: Old Bell Cow
N: RJ R-153
R: reel
Z: transcribed to ABC by Debby Knight
M: C|
L: 1/8
K: Amix
"A"A=cAG EGED | CA,2CA,3A, |\
A,B,CE A2AG | "D"FD2F D3A- ||\
"A"A=cAG EGED | CA,2C A,2CB, |
A,B,CE AEAG | [1 "D"FD2E D3A-:|[2 "D"FD2E D4 ::\
"A"e3f e2ed | cdef e2A2 | "G"d2d2 BAGB |
dBd=c BG3 ||\
"A"e3f e2ed | cdef efef | "G"gfgf efed | "A"cABc A4 :|\
 E4 ^C4 | A,4 |]
%[" Occasionally replace the first two measures with:"\
%.A4.E4 | .^C4.A,4 |
% text 05/22/10

